flaticon/sewing/scissors.svg

<svg xmlns="http://www.w3.org/2000/svg" width="32" height="32" viewBox="0 0 24 24">
    <path d="M 17.449219 16.800781 L 14.359375 12.417969 L 18.519531 7.71875 C 19.441406 6.679688 19.921875 5.238281 19.800781 3.839844 C 19.601562 1.199219 19.039062 0.28125 19 0.199219 C 18.921875 0.078125 18.800781 0 18.679688 0 C 18.519531 0 18.398438 0.0390625 18.320312 0.160156 L 12 9.070312 L 5.71875 0.160156 C 5.679688 0.078125 5.519531 0 5.398438 0 C 5.238281 0 5.121094 0.078125 5.078125 0.199219 C 5 0.28125 4.480469 1.199219 4.28125 3.839844 C 4.160156 5.238281 4.640625 6.640625 5.558594 7.71875 L 9.628906 12.363281 L 6.511719 16.800781 C 4.554688 16.847656 3 18.429688 3 20.398438 C 3 22.398438 4.601562 24 6.601562 24 C 8.601562 24 10.199219 22.398438 10.199219 20.398438 C 10.199219 19.492188 9.871094 18.671875 9.324219 18.039062 L 11.96875 15.035156 L 14.636719 18.082031 C 14.113281 18.707031 13.800781 19.515625 13.800781 20.398438 C 13.800781 22.398438 15.398438 24 17.398438 24 C 19.398438 24 21 22.398438 21 20.398438 C 21 18.417969 19.425781 16.828125 17.449219 16.800781 Z M 6.601562 23.199219 C 5.039062 23.199219 3.800781 21.960938 3.800781 20.398438 C 3.800781 18.839844 5.039062 17.601562 6.601562 17.601562 C 7.273438 17.601562 7.890625 17.832031 8.371094 18.222656 C 8.421875 18.265625 8.472656 18.3125 8.519531 18.359375 C 8.542969 18.382812 8.5625 18.398438 8.585938 18.414062 C 9.089844 18.921875 9.398438 19.621094 9.398438 20.398438 C 9.398438 21.960938 8.160156 23.199219 6.601562 23.199219 Z M 8.808594 17.550781 C 8.421875 17.253906 7.976562 17.03125 7.488281 16.910156 L 10.199219 13.039062 L 11.480469 14.480469 Z M 12.519531 9.800781 L 18.558594 1.28125 C 18.71875 1.761719 18.921875 2.601562 19 3.921875 C 19.078125 5.121094 18.679688 6.320312 17.921875 7.199219 L 13.886719 11.75 L 12.910156 10.359375 Z M 5.078125 3.878906 C 5.160156 2.601562 5.359375 1.761719 5.519531 1.238281 L 11.640625 9.910156 C 11.648438 9.941406 11.664062 9.972656 11.679688 10 L 13.519531 12.640625 C 13.558594 12.675781 13.59375 12.714844 13.640625 12.742188 L 16.558594 16.878906 C 16.355469 16.929688 16.160156 17.003906 15.972656 17.089844 C 15.707031 17.203125 15.460938 17.347656 15.234375 17.515625 L 6.160156 7.160156 C 5.398438 6.28125 5 5.078125 5.078125 3.878906 Z M 17.398438 23.199219 C 15.839844 23.199219 14.601562 21.960938 14.601562 20.398438 C 14.601562 19.613281 14.914062 18.90625 15.429688 18.402344 C 15.445312 18.390625 15.464844 18.375 15.480469 18.359375 C 15.925781 17.953125 16.507812 17.679688 17.136719 17.613281 C 17.222656 17.605469 17.3125 17.601562 17.398438 17.601562 C 18.960938 17.601562 20.199219 18.839844 20.199219 20.398438 C 20.199219 21.960938 18.960938 23.199219 17.398438 23.199219 Z M 17.398438 23.199219"/>
    <path d="M17.398438 18.398438C16.28125 18.398438 15.398438 19.28125 15.398438 20.398438 15.398438 21.519531 16.28125 22.398438 17.398438 22.398438 18.519531 22.398438 19.398438 21.519531 19.398438 20.398438 19.398438 19.28125 18.519531 18.398438 17.398438 18.398438zM17.398438 21.601562C16.71875 21.601562 16.199219 21.078125 16.199219 20.398438 16.199219 19.71875 16.71875 19.199219 17.398438 19.199219 18.078125 19.199219 18.601562 19.71875 18.601562 20.398438 18.601562 21.078125 18.078125 21.601562 17.398438 21.601562zM6.601562 18.398438C5.480469 18.398438 4.601562 19.28125 4.601562 20.398438 4.601562 21.519531 5.480469 22.398438 6.601562 22.398438 7.71875 22.398438 8.601562 21.519531 8.601562 20.398438 8.601562 19.28125 7.71875 18.398438 6.601562 18.398438zM6.601562 21.601562C5.921875 21.601562 5.398438 21.078125 5.398438 20.398438 5.398438 19.71875 5.921875 19.199219 6.601562 19.199219 7.28125 19.199219 7.800781 19.71875 7.800781 20.398438 7.800781 21.078125 7.28125 21.601562 6.601562 21.601562zM6.601562 21.601562"/>
</svg>

<svg xmlns="http://www.w3.org/2000/svg" width="32" height="32" viewBox="0 0 24 24">
    <path d="M17.45 16.8l-3.09-4.382 4.16-4.7A5.25 5.25 0 0 0 19.8 3.84C19.603 1.2 19.04.28 19 .2c-.078-.122-.2-.2-.32-.2-.16 0-.282.04-.36.16L12 9.07 5.719.16c-.04-.082-.2-.16-.32-.16-.16 0-.278.078-.32.2C5 .28 4.48 1.2 4.28 3.84c-.12 1.398.36 2.8 1.278 3.879l4.07 4.644-3.117 4.438A3.586 3.586 0 0 0 3 20.398C3 22.398 4.602 24 6.602 24c2 0 3.597-1.602 3.597-3.602 0-.906-.328-1.726-.875-2.359l2.645-3.004 2.668 3.047a3.594 3.594 0 0 0-.836 2.316c0 2 1.597 3.602 3.597 3.602S21 22.398 21 20.398c0-1.98-1.574-3.57-3.55-3.597zM6.601 23.2A2.781 2.781 0 0 1 3.8 20.397a2.78 2.78 0 0 1 2.8-2.796c.672 0 1.29.23 1.77.62.05.044.102.09.149.137a.41.41 0 0 0 .066.055c.504.508.812 1.207.812 1.984A2.78 2.78 0 0 1 6.602 23.2zm2.207-5.65a3.583 3.583 0 0 0-1.32-.64l2.71-3.87 1.281 1.44zm3.71-7.75l6.04-8.519c.16.48.363 1.32.441 2.64.078 1.2-.32 2.4-1.078 3.278l-4.035 4.551-.977-1.39zM5.08 3.88c.081-1.277.28-2.117.44-2.64l6.122 8.671a.368.368 0 0 0 .039.09l1.84 2.64c.039.036.074.075.12.102l2.919 4.137c-.204.05-.399.125-.586.21a3.632 3.632 0 0 0-.739.427L6.16 7.16C5.398 6.281 5 5.078 5.078 3.88zm12.32 19.32a2.78 2.78 0 0 1-2.797-2.8c0-.786.312-1.493.828-1.997a.495.495 0 0 0 .05-.043 2.927 2.927 0 0 1 1.657-.746c.086-.008.175-.011.261-.011a2.78 2.78 0 0 1 2.801 2.796c0 1.563-1.238 2.801-2.8 2.801zm0 0"/>
    <path d="M17.398 18.398c-1.117 0-2 .883-2 2 0 1.122.883 2 2 2 1.122 0 2-.878 2-2 0-1.117-.878-2-2-2zm0 3.204c-.68 0-1.199-.524-1.199-1.204 0-.68.52-1.199 1.2-1.199.68 0 1.203.52 1.203 1.2 0 .68-.524 1.203-1.204 1.203zm0 0M6.602 18.398c-1.122 0-2 .883-2 2 0 1.122.878 2 2 2 1.117 0 2-.878 2-2 0-1.117-.883-2-2-2zm0 3.204c-.68 0-1.204-.524-1.204-1.204 0-.68.524-1.199 1.204-1.199.68 0 1.199.52 1.199 1.2 0 .68-.52 1.203-1.2 1.203zm0 0"/>
</svg>
